X:1
T:Title
%%score { ( 1 3 4 ) | ( 2 5 6 ) }
L:1/8
M:4/4
K:Ab
V:1 treble nm="Grand Piano"
V:3 treble 
V:4 treble 
V:2 bass 
V:5 bass 
V:6 bass 
V:1
 z4 z2[Q:1/4=100] [CE]2 | [Ec]3 [EA] [FB][FA][EG][DF] | [CE]6 [Ec]2 | B3 E F2 G2 |[M:3/4] [CA]6 | %5
[M:1/4] [CE]2 |[M:4/4] [Ec]3 [EA] [FB][FA][EG][DF] | [CE]6 [Ec]2 | B3 E F2 G2 |[M:3/4] [CA]6 | %10
[M:1/4] [EA][Ac] |[M:4/4] [ce]4 z4 | [FB][FA][EG][DF] [CE]4 | z .A3 z .c3 |[M:3/4] B6 |[M:1/4] Ac | %16
[M:4/4] [ce]4 z4 | .[FB]2 [A,EG][A,DF] [CE]4 | z .A3 z .c3 |[M:3/4] A6 |] %20
V:2
 z4 z2 [A,,A,]2 | [A,,A,]3 [C,A,] [D,A,][D,A,][D,A,][D,A,] | [A,,A,]6 [A,,A,]2 | %3
 [E,G,E]3 [E,G,D] [E,A,D]2 [E,B,D]2 |[M:3/4] [A,,A,]6 |[M:1/4] [A,,A,]2 | %6
[M:4/4] [A,,A,]3 [C,A,] [D,A,][D,A,][D,A,][D,A,] | [A,,A,]6 [A,,A,]2 | %8
 [E,G,E]3 [E,G,D] [E,A,D]2 [E,B,D]2 |[M:3/4] [A,,A,]6 |[M:1/4] [A,C][A,E] | %11
[M:4/4] [A,E]2 A,A, A,3 A, | [D,A,][D,A,][D,A,][D,A,] [A,,A,]4 | z2 z C z2 z E | %14
[M:3/4] [E,G,E]2 [B,,A,]2 [E,G,]2 |[M:1/4][K:treble] [A,CE][A,EA] | %16
[M:4/4] [A,E]2 A,A,[K:bass] A,2 A,A, | z AD,D, [A,,A,]4 | z .C3 C .E3 |[M:3/4] z2 F,2 E,2 |] %20
V:3
 x8 | x8 | x8 | x8 |[M:3/4] x6 |[M:1/4] x2 |[M:4/4] x8 | x8 | x8 |[M:3/4] x6 |[M:1/4] x2 | %11
[M:4/4] z2 E[E_c=d] [E=ce]3 [CEA] | x8 | .[CE]2 z A .[CA]2 z c |[M:3/4] z2 =D2 E2 |[M:1/4] x2 | %16
[M:4/4] z2 E[E_c=d] [E=ce]2 [CEA][CEA] | x8 | .[CE]2 z A .A2 z B |[M:3/4] [A,C]2 D2 C2 |] %20
V:4
 x8 | x8 | x8 | x8 |[M:3/4] x6 |[M:1/4] x2 |[M:4/4] x8 | x8 | x8 |[M:3/4] x6 |[M:1/4] x2 | %11
[M:4/4] x8 | x8 | z2 A,2 z2 A,2 |[M:3/4] x6 |[M:1/4] x2 |[M:4/4] x8 | x8 | z2 A,2 z2 G,2 | %19
[M:3/4] x6 |] %20
V:5
 x8 | x8 | x8 | x8 |[M:3/4] x6 |[M:1/4] x2 |[M:4/4] x8 | x8 | x8 |[M:3/4] x6 |[M:1/4] x2 | %11
[M:4/4] x8 | x8 | z .C3 z .E3 |[M:3/4] x6 |[M:1/4][K:treble] x2 |[M:4/4] x4[K:bass] x4 | %17
 [D,A,]2 z2 z4 | z2 z C [E,A,]2 z D |[M:3/4] A,,6 |] %20
V:6
 x8 | x8 | x8 | x8 |[M:3/4] x6 |[M:1/4] x2 |[M:4/4] x8 | x8 | x8 |[M:3/4] x6 |[M:1/4] x2 | %11
[M:4/4] x8 | x8 | [A,,A,]2 A,,2 [A,,A,]2 A,,2 |[M:3/4] x6 |[M:1/4][K:treble] x2 | %16
[M:4/4] x4[K:bass] x4 | x8 | [A,,A,]2 A,,2 z2 D,2 |[M:3/4] x6 |] %20

